X:181
T: WIR WOLLN EINMAL SPAZIEREN GEHN
N: K2372
O: Europa, Mitteleuropa, Deutschland, Rheinland
R: Kinder - Lied, Tanz -, Lauf - Spiel
M: 2/4
L: 1/8
K: G
D | GGGG | GED
D | AAdd | B2G
D | GGGG | GED
D | AAdd | B2G
G | AAFD | AAF
G | AAFD | AAF
D | G2B2 | d2z
B | d2B2 | G2z

